;FLAVOR:Marlin
;TIME:2337
;Filament used: 1.02518m
;Layer height: 0.16
;MINX:87.844
;MINY:87.843
;MINZ:0.2
;MAXX:129.608
;MAXY:132.173
;MAXZ:20.2
;Generated with Cura_SteamEngine 4.13.1
M140 S60
M105
M190 S60
M104 S215
M105
M109 S215
M82 ;absolute extrusion mode
; Ender 3 Custom Start G-code
G92 E0 ; Reset Extruder
G28 ; Home all axes
G1 Z2.0 F3000 ; Move Z Axis up little to prevent scratching of Heat Bed
G1 X0.1 Y20 Z0.3 F5000.0 ; Move to start position
G1 X0.1 Y200.0 Z0.3 F1500.0 E15 ; Draw the first line
G1 X0.4 Y200.0 Z0.3 F5000.0 ; Move to side a little
G1 X0.4 Y20 Z0.3 F1500.0 E30 ; Draw the second line
G92 E0 ; Reset Extruder
G1 Z2.0 F3000 ; Move Z Axis up little to prevent scratching of Heat Bed
G1 X5 Y20 Z0.3 F5000.0 ; Move over to prevent blob squish
G92 E0
G92 E0
G1 F1500 E-6.5
;LAYER_COUNT:102
;LAYER:0
M107
G0 F6000 X94.419 Y92.638 Z0.2
;TYPE:SKIRT
G1 F1500 E0
G1 F1200 X94.899 Y92.154 E0.02267
G1 X95.346 Y91.731 E0.04314
G1 X96.054 Y91.116 E0.07433
G1 X96.628 Y90.689 E0.09813
G1 X97.071 Y90.381 E0.11607
G1 X98.029 Y89.786 E0.15358
G1 X98.266 Y89.655 E0.16259
G1 X99.367 Y89.124 E0.20324
G1 X99.976 Y88.871 E0.22518
G1 X101.223 Y88.438 E0.26908
G1 X101.451 Y88.374 E0.27696
G1 X102.55 Y88.126 E0.31443
G1 X103.169 Y88.019 E0.33532
G1 X104.4 Y87.877 E0.37654
G1 X104.622 Y87.864 E0.38393
G1 X104.989 Y87.848 E0.39615
G1 X105.464 Y87.843 E0.41195
G1 X105.665 Y87.845 E0.41864
G1 X106.372 Y87.874 E0.44217
G1 X106.641 Y87.894 E0.45114
G1 X107.117 Y87.94 E0.46705
G1 X107.647 Y88.01 E0.48483
G1 X107.849 Y88.042 E0.49163
G1 X108.269 Y88.117 E0.50582
G1 X109.1 Y88.311 E0.53421
G1 X109.664 Y88.466 E0.55366
G1 X110.767 Y88.833 E0.59232
G1 X110.976 Y88.915 E0.59979
G1 X111.585 Y89.175 E0.62181
G1 X111.846 Y89.296 E0.63138
G1 X112.586 Y89.674 E0.65902
G1 X112.849 Y89.821 E0.66904
G1 X113.484 Y90.205 E0.69372
G1 X114.016 Y90.57 E0.71518
G1 X114.488 Y90.915 E0.73463
G1 X115.329 Y91.596 E0.77062
G1 X115.499 Y91.748 E0.7782
G1 X116.075 Y92.301 E0.80476
G1 X116.28 Y92.513 E0.81457
G1 X116.602 Y92.862 E0.83036
G1 X117.197 Y93.588 E0.86159
G1 X117.59 Y94.112 E0.88337
G1 X118.268 Y95.129 E0.92402
G1 X118.354 Y95.275 E0.92966
G1 X118.5 Y95.531 E0.93946
G1 X119.169 Y96.74 E0.98542
G1 X119.654 Y97.636 E1.01931
G1 X120.896 Y99.78 E1.10172
G1 X122.242 Y101.96 E1.18693
G1 X123.602 Y104.031 E1.26934
G1 X125.059 Y106.115 E1.35391
G1 X126.413 Y107.949 E1.42973
G1 X126.715 Y108.347 E1.44635
G1 X127.327 Y109.242 E1.48241
G1 X127.459 Y109.457 E1.4908
G1 X127.671 Y109.816 E1.50467
G1 X127.989 Y110.412 E1.52714
G1 X128.122 Y110.681 E1.53712
G1 X128.442 Y111.391 E1.56302
G1 X128.532 Y111.611 E1.57093
G1 X128.912 Y112.701 E1.60932
G1 X129.087 Y113.302 E1.63014
G1 X129.338 Y114.353 E1.66608
G1 X129.376 Y114.556 E1.67295
G1 X129.451 Y115.007 E1.68816
G1 X129.548 Y115.914 E1.71849
G1 X129.587 Y116.514 E1.73849
G1 X129.608 Y117.451 E1.76966
G1 X129.572 Y118.137 E1.79251
G1 X129.522 Y118.739 E1.8126
G1 X129.364 Y119.895 E1.85141
G1 X129.325 Y120.099 E1.85832
G1 X129.183 Y120.737 E1.88006
G1 X129.113 Y121.013 E1.88953
G1 X128.898 Y121.754 E1.91519
G1 X128.805 Y122.036 E1.92507
G1 X128.615 Y122.566 E1.94379
G1 X128.584 Y122.646 E1.94665
G1 X128.385 Y123.125 E1.9639
G1 X128.261 Y123.405 E1.97408
G1 X127.883 Y124.175 E2.00261
G1 X127.74 Y124.44 E2.01263
G1 X127.355 Y125.098 E2.03798
G1 X127.224 Y125.305 E2.04613
G1 X126.571 Y126.229 E2.08376
G1 X126.215 Y126.681 E2.1029
G1 X125.603 Y127.393 E2.13413
G1 X125.103 Y127.893 E2.15765
G1 X124.643 Y128.325 E2.17864
G1 X123.795 Y129.045 E2.21564
G1 X123.625 Y129.175 E2.22275
G1 X123.045 Y129.59 E2.24647
G1 X122.832 Y129.732 E2.25499
G1 X122.273 Y130.081 E2.27691
G1 X122.225 Y130.109 E2.27875
G1 X121.601 Y130.446 E2.30234
G1 X121.025 Y130.734 E2.32376
G1 X119.946 Y131.203 E2.36289
G1 X119.742 Y131.279 E2.37013
G1 X118.543 Y131.649 E2.41187
G1 X118.082 Y131.763 E2.42766
G1 X117.317 Y131.924 E2.45366
G1 X116.872 Y132.001 E2.46868
G1 X115.941 Y132.121 E2.49991
G1 X115.288 Y132.158 E2.52166
G1 X114.724 Y132.173 E2.54043
G1 X113.787 Y132.158 E2.57159
G1 X113.059 Y132.091 E2.59591
G1 X112.439 Y132.013 E2.61669
G1 X111.259 Y131.799 E2.65658
G1 X111.062 Y131.752 E2.66332
G1 X110.799 Y131.685 E2.67234
G1 X109.452 Y131.328 E2.71869
G1 X109.345 Y131.305 E2.72233
G1 X108.765 Y131.146 E2.74233
G1 X106.264 Y130.537 E2.82795
G1 X103.856 Y130.026 E2.90982
G1 X101.396 Y129.573 E2.99302
G1 X100.351 Y129.395 E3.02828
G1 X100.055 Y129.34 E3.03829
G1 X99.843 Y129.298 E3.04548
G1 X98.739 Y129.019 E3.08335
G1 X98.097 Y128.821 E3.1057
G1 X96.964 Y128.403 E3.14586
G1 X96.761 Y128.315 E3.15322
G1 X95.669 Y127.767 E3.19386
G1 X95.119 Y127.452 E3.21494
G1 X94.326 Y126.952 E3.24612
G1 X93.74 Y126.517 E3.27039
G1 X93.281 Y126.152 E3.2899
G1 X92.501 Y125.469 E3.32438
G1 X92.125 Y125.092 E3.34209
G1 X91.79 Y124.739 E3.35828
G1 X91.305 Y124.193 E3.38257
G1 X91.261 Y124.14 E3.38486
G1 X90.712 Y123.419 E3.415
G1 X90.4 Y122.973 E3.4331
G1 X89.77 Y121.961 E3.47275
G1 X89.624 Y121.695 E3.48284
G1 X89.091 Y120.58 E3.52395
G1 X88.859 Y120.015 E3.54426
G1 X88.44 Y118.795 E3.58717
G1 X88.373 Y118.555 E3.59545
G1 X88.128 Y117.467 E3.63255
G1 X88.019 Y116.835 E3.65388
G1 X87.881 Y115.664 E3.6931
G1 X87.867 Y115.444 E3.70043
G1 X87.847 Y114.973 E3.71611
G1 X87.844 Y114.567 E3.72961
G1 X87.846 Y114.358 E3.73656
G1 X87.858 Y113.933 E3.7507
G1 X87.888 Y113.452 E3.76673
G1 X87.906 Y113.242 E3.77374
G1 X87.946 Y112.851 E3.78682
G1 X88.011 Y112.372 E3.80289
G1 X88.043 Y112.17 E3.8097
G1 X88.12 Y111.739 E3.82426
G1 X88.314 Y110.912 E3.85251
G1 X88.469 Y110.347 E3.872
G1 X89.131 Y107.795 E3.95969
G1 X89.698 Y105.328 E4.04388
G1 X90.184 Y102.883 E4.12679
G1 X90.43 Y101.405 E4.17662
G1 X90.487 Y101.132 E4.1859
G1 X90.604 Y100.452 E4.20885
G1 X90.644 Y100.231 E4.21632
G1 X90.706 Y99.909 E4.22723
G1 X90.802 Y99.463 E4.2424
G1 X90.915 Y99.01 E4.25793
G1 X90.97 Y98.808 E4.26489
G1 X91.079 Y98.434 E4.27785
G1 X91.26 Y97.885 E4.29708
G1 X91.352 Y97.629 E4.30612
G1 X91.625 Y96.942 E4.33071
G1 X91.719 Y96.727 E4.33852
G1 X92.253 Y95.667 E4.37799
G1 X92.564 Y95.124 E4.3988
G1 X93.064 Y94.331 E4.42998
G1 X93.457 Y93.798 E4.45201
G1 X93.808 Y93.351 E4.47091
G1 X94.419 Y92.638 E4.50214
G0 F6000 X94.723 Y92.899
G1 F1200 X95.174 Y92.445 E4.52343
G1 X95.621 Y92.022 E4.5439
G1 X96.317 Y91.419 E4.57453
G1 X96.856 Y91.018 E4.59687
G1 X97.299 Y90.71 E4.61482
G1 X98.222 Y90.136 E4.65097
G1 X98.459 Y90.005 E4.65997
G1 X99.52 Y89.493 E4.69916
G1 X100.129 Y89.24 E4.72109
G1 X101.331 Y88.823 E4.76341
G1 X101.559 Y88.759 E4.77128
G1 X102.618 Y88.52 E4.80739
G1 X103.237 Y88.413 E4.82828
G1 X104.423 Y88.276 E4.86799
G1 X104.645 Y88.263 E4.87539
G1 X105.002 Y88.248 E4.88727
G1 X105.46 Y88.243 E4.90251
G1 X105.661 Y88.245 E4.90919
G1 X106.342 Y88.273 E4.93186
G1 X106.611 Y88.293 E4.94084
G1 X107.074 Y88.337 E4.9563
G1 X107.585 Y88.406 E4.97345
G1 X107.787 Y88.438 E4.98026
G1 X108.194 Y88.51 E4.994
G1 X108.994 Y88.697 E5.02133
G1 X109.558 Y88.852 E5.04078
G1 X110.621 Y89.205 E5.07804
G1 X110.83 Y89.287 E5.0855
G1 X111.416 Y89.538 E5.10671
G1 X111.677 Y89.659 E5.11628
G1 X112.391 Y90.023 E5.14293
G1 X112.654 Y90.17 E5.15295
G1 X113.266 Y90.54 E5.17674
G1 X113.78 Y90.893 E5.19748
G1 X114.252 Y91.238 E5.21692
G1 X115.062 Y91.894 E5.25159
G1 X115.232 Y92.046 E5.25918
G1 X115.787 Y92.58 E5.28479
G1 X115.992 Y92.792 E5.2946
G1 X116.304 Y93.128 E5.30985
G1 X116.877 Y93.828 E5.33994
G1 X117.27 Y94.352 E5.36172
G1 X117.923 Y95.332 E5.40089
G1 X118.009 Y95.478 E5.40653
G1 X118.15 Y95.725 E5.41599
G1 X118.817 Y96.931 E5.46183
G1 X119.291 Y97.806 E5.49492
G1 X120.562 Y100 E5.57926
G1 X121.9 Y102.169 E5.66402
G1 X123.272 Y104.258 E5.74715
G1 X124.729 Y106.342 E5.83172
G1 X126.102 Y108.201 E5.90859
G1 X126.397 Y108.589 E5.9248
G1 X126.986 Y109.451 E5.95952
G1 X127.118 Y109.666 E5.96791
G1 X127.324 Y110.015 E5.98139
G1 X127.63 Y110.589 E6.00303
G1 X127.763 Y110.858 E6.01301
G1 X128.072 Y111.542 E6.03797
G1 X128.162 Y111.762 E6.04588
G1 X128.528 Y112.813 E6.08289
G1 X128.703 Y113.414 E6.10371
G1 X128.945 Y114.427 E6.13835
G1 X128.983 Y114.63 E6.14522
G1 X129.055 Y115.066 E6.15992
G1 X129.149 Y115.939 E6.18912
G1 X129.188 Y116.539 E6.20912
G1 X129.207 Y117.46 E6.23976
G1 X129.174 Y118.104 E6.26121
G1 X129.124 Y118.706 E6.2813
G1 X128.971 Y119.819 E6.31867
G1 X128.932 Y120.023 E6.32557
G1 X128.796 Y120.639 E6.34656
G1 X128.726 Y120.915 E6.35603
G1 X128.518 Y121.629 E6.38076
G1 X128.425 Y121.911 E6.39064
G1 X128.242 Y122.421 E6.40866
G1 X128.211 Y122.501 E6.41151
G1 X128.019 Y122.963 E6.42815
G1 X127.895 Y123.243 E6.43834
G1 X127.531 Y123.985 E6.46583
G1 X127.388 Y124.25 E6.47584
G1 X127.017 Y124.884 E6.50027
G1 X126.886 Y125.091 E6.50842
G1 X126.256 Y125.982 E6.54472
G1 X125.9 Y126.434 E6.56385
G1 X125.3 Y127.132 E6.59447
G1 X124.829 Y127.602 E6.6166
G1 X124.369 Y128.034 E6.63759
G1 X123.552 Y128.727 E6.67322
G1 X123.382 Y128.857 E6.68034
G1 X122.823 Y129.257 E6.7032
G1 X122.61 Y129.399 E6.71171
G1 X122.071 Y129.735 E6.73284
G1 X122.023 Y129.763 E6.73469
G1 X121.422 Y130.088 E6.75741
G1 X120.846 Y130.376 E6.77883
G1 X119.807 Y130.828 E6.81652
G1 X119.603 Y130.904 E6.82376
G1 X118.447 Y131.261 E6.864
G1 X117.986 Y131.375 E6.87979
G1 X117.248 Y131.53 E6.90487
G1 X116.803 Y131.607 E6.91989
G1 X115.89 Y131.724 E6.95051
G1 X115.278 Y131.758 E6.9709
G1 X114.714 Y131.773 E6.98966
G1 X113.793 Y131.758 E7.0203
G1 X113.109 Y131.694 E7.04315
G1 X112.489 Y131.616 E7.06393
G1 X111.352 Y131.41 E7.10236
G1 X111.155 Y131.363 E7.1091
G1 X110.902 Y131.299 E7.11778
G1 X109.611 Y130.957 E7.1622
G1 X109.451 Y130.92 E7.16766
G1 X108.827 Y130.749 E7.18918
G1 X106.37 Y130.151 E7.27329
G1 X103.947 Y129.636 E7.35568
G1 X101.388 Y129.165 E7.44222
G1 X100.418 Y129 E7.47494
G1 X100.133 Y128.948 E7.48458
G1 X99.921 Y128.906 E7.49177
G1 X98.857 Y128.637 E7.52827
G1 X98.215 Y128.439 E7.55062
G1 X97.123 Y128.036 E7.58933
G1 X96.92 Y127.948 E7.59669
G1 X95.868 Y127.42 E7.63584
G1 X95.318 Y127.105 E7.65692
G1 X94.54 Y126.613 E7.68754
G1 X93.989 Y126.204 E7.71036
G1 X93.53 Y125.839 E7.72986
G1 X92.777 Y125.18 E7.76315
G1 X92.415 Y124.817 E7.7802
G1 X92.08 Y124.464 E7.79638
G1 X91.613 Y123.938 E7.81978
G1 X91.569 Y123.885 E7.82207
G1 X91.039 Y123.19 E7.85114
G1 X90.727 Y122.744 E7.86924
G1 X90.121 Y121.768 E7.90745
G1 X89.975 Y121.502 E7.91755
G1 X89.461 Y120.428 E7.95715
G1 X89.229 Y119.863 E7.97746
G1 X88.825 Y118.687 E8.01882
G1 X88.758 Y118.447 E8.02711
G1 X88.522 Y117.399 E8.06284
G1 X88.413 Y116.767 E8.08417
G1 X88.28 Y115.638 E8.12198
G1 X88.266 Y115.418 E8.12931
G1 X88.247 Y114.962 E8.14449
G1 X88.243 Y114.571 E8.15749
G1 X88.245 Y114.362 E8.16445
G1 X88.257 Y113.95 E8.17816
G1 X88.287 Y113.486 E8.19362
G1 X88.305 Y113.276 E8.20063
G1 X88.344 Y112.896 E8.21334
G1 X88.407 Y112.434 E8.22884
G1 X88.439 Y112.232 E8.23565
G1 X88.513 Y111.815 E8.24973
G1 X88.699 Y111.018 E8.27695
G1 X88.886 Y110.338 E8.30041
G1 X89.515 Y107.913 E8.38373
G1 X90.094 Y105.391 E8.4698
G1 X90.57 Y102.997 E8.55098
G1 X90.824 Y101.47 E8.60247
G1 X90.887 Y101.169 E8.6127
G1 X91.037 Y100.307 E8.6418
G1 X91.099 Y99.985 E8.6527
G1 X91.191 Y99.555 E8.66733
G1 X91.301 Y99.115 E8.68241
G1 X91.356 Y98.913 E8.68938
G1 X91.462 Y98.549 E8.70199
G1 X91.637 Y98.02 E8.72052
G1 X91.729 Y97.764 E8.72957
G1 X91.992 Y97.103 E8.75323
G1 X92.086 Y96.888 E8.76103
G1 X92.6 Y95.866 E8.79908
G1 X92.911 Y95.323 E8.81989
G1 X93.403 Y94.545 E8.85051
G1 X93.772 Y94.045 E8.87118
G1 X94.123 Y93.598 E8.89008
G1 X94.723 Y92.899 E8.92072
G0 F6000 X95.026 Y93.16
G1 F1200 X95.449 Y92.735 E8.94067
G1 X95.896 Y92.312 E8.96113
G1 X96.579 Y91.721 E8.99118
G1 X97.084 Y91.346 E9.0121
G1 X97.527 Y91.038 E9.03004
G1 X98.416 Y90.486 E9.06485
G1 X98.653 Y90.355 E9.07385
G1 X99.674 Y89.863 E9.11155
G1 X100.283 Y89.61 E9.13348
G1 X101.439 Y89.209 E9.17418
G1 X101.667 Y89.145 E9.18205
G1 X102.687 Y88.914 E9.21684
G1 X103.306 Y88.807 E9.23773
G1 X104.447 Y88.675 E9.27594
G1 X104.669 Y88.662 E9.28333
G1 X105.015 Y88.648 E9.29485
G1 X105.456 Y88.643 E9.30952
G1 X105.657 Y88.645 E9.3162
G1 X106.312 Y88.672 E9.33801
G1 X106.581 Y88.692 E9.34698
G1 X107.03 Y88.735 E9.36198
G1 X107.522 Y88.801 E9.37849
G1 X107.724 Y88.833 E9.38529
G1 X108.118 Y88.903 E9.3986
G1 X108.888 Y89.083 E9.4249
G1 X109.452 Y89.238 E9.44436
G1 X110.474 Y89.578 E9.48018
G1 X110.683 Y89.66 E9.48765
G1 X111.248 Y89.901 E9.50808
G1 X111.509 Y90.022 E9.51765
G1 X112.196 Y90.372 E9.54329
G1 X112.459 Y90.519 E9.55331
G1 X113.048 Y90.875 E9.5762
G1 X113.544 Y91.216 E9.59622
G1 X114.016 Y91.561 E9.61567
G1 X114.796 Y92.192 E9.64904
G1 X114.966 Y92.344 E9.65662
G1 X115.5 Y92.858 E9.68127
G1 X115.705 Y93.07 E9.69108
G1 X116.006 Y93.395 E9.70582
G1 X116.557 Y94.068 E9.73475
G1 X116.95 Y94.592 E9.75653
G1 X117.579 Y95.535 E9.79423
G1 X117.665 Y95.681 E9.79987
G1 X117.8 Y95.919 E9.80897
G1 X118.465 Y97.121 E9.85466
G1 X118.944 Y98.006 E9.88813
G1 X120.224 Y100.216 E9.97307
G1 X121.542 Y102.351 E10.05652
G1 X122.953 Y104.5 E10.14203
G1 X124.412 Y106.588 E10.22675
G1 X125.782 Y108.441 E10.3034
G1 X126.078 Y108.831 E10.31968
G1 X126.645 Y109.66 E10.35309
G1 X126.777 Y109.875 E10.36148
G1 X126.977 Y110.214 E10.37457
G1 X127.271 Y110.766 E10.39537
G1 X127.404 Y111.035 E10.40535
G1 X127.702 Y111.694 E10.42941
G1 X127.792 Y111.914 E10.43731
G1 X128.144 Y112.924 E10.47289
G1 X128.319 Y113.525 E10.49371
G1 X128.552 Y114.5 E10.52705
G1 X128.59 Y114.703 E10.53392
G1 X128.66 Y115.124 E10.54811
G1 X128.75 Y115.965 E10.57624
G1 X128.789 Y116.565 E10.59624
G1 X128.807 Y117.468 E10.62628
G1 X128.775 Y118.071 E10.64637
G1 X128.725 Y118.673 E10.66646
G1 X128.579 Y119.744 E10.70241
G1 X128.54 Y119.948 E10.70932
G1 X128.408 Y120.541 E10.72952
G1 X128.338 Y120.817 E10.73899
G1 X128.138 Y121.504 E10.76279
G1 X128.045 Y121.786 E10.77267
G1 X127.869 Y122.276 E10.78998
G1 X127.838 Y122.356 E10.79284
G1 X127.653 Y122.801 E10.80887
G1 X127.529 Y123.081 E10.81905
G1 X127.179 Y123.795 E10.8455
G1 X127.036 Y124.06 E10.85551
G1 X126.679 Y124.671 E10.87905
G1 X126.548 Y124.878 E10.8872
G1 X125.942 Y125.734 E10.92208
G1 X125.586 Y126.186 E10.94122
G1 X124.996 Y126.87 E10.97126
G1 X124.556 Y127.31 E10.99196
G1 X124.096 Y127.742 E11.01295
G1 X123.309 Y128.409 E11.04726
G1 X123.139 Y128.539 E11.05438
G1 X122.601 Y128.924 E11.07638
G1 X122.388 Y129.066 E11.0849
G1 X121.869 Y129.39 E11.10525
G1 X121.821 Y129.418 E11.10709
G1 X121.244 Y129.73 E11.12891
G1 X120.668 Y130.018 E11.15033
G1 X119.667 Y130.453 E11.18663
G1 X119.463 Y130.529 E11.19387
G1 X118.351 Y130.873 E11.23259
G1 X117.89 Y130.987 E11.24838
G1 X117.18 Y131.136 E11.27251
G1 X116.735 Y131.213 E11.28753
G1 X115.839 Y131.327 E11.31757
G1 X115.267 Y131.358 E11.33662
G1 X114.703 Y131.373 E11.35539
G1 X113.8 Y131.357 E11.38543
G1 X113.159 Y131.297 E11.40684
G1 X112.539 Y131.219 E11.42763
G1 X111.445 Y131.021 E11.4646
G1 X111.248 Y130.974 E11.47134
G1 X111.004 Y130.912 E11.47971
G1 X109.862 Y130.61 E11.519
G1 X109.557 Y130.534 E11.52946
G1 X108.955 Y130.369 E11.55022
G1 X106.45 Y129.76 E11.63596
G1 X103.989 Y129.236 E11.71965
G1 X101.532 Y128.784 E11.80274
G1 X100.485 Y128.606 E11.83806
G1 X100.211 Y128.556 E11.84733
G1 X99.999 Y128.514 E11.85451
G1 X98.975 Y128.255 E11.88965
G1 X98.333 Y128.057 E11.91199
G1 X97.282 Y127.669 E11.94925
G1 X97.079 Y127.581 E11.95661
G1 X96.067 Y127.073 E11.99427
G1 X95.517 Y126.758 E12.01536
G1 X94.754 Y126.275 E12.04539
G1 X94.237 Y125.89 E12.06683
G1 X93.778 Y125.525 E12.08633
G1 X93.054 Y124.891 E12.11834
G1 X92.705 Y124.541 E12.13478
G1 X92.37 Y124.188 E12.15097
G1 X91.921 Y123.682 E12.17347
G1 X91.877 Y123.629 E12.17576
G1 X91.367 Y122.961 E12.20371
G1 X91.055 Y122.515 E12.22182
G1 X90.471 Y121.576 E12.25859
G1 X90.325 Y121.31 E12.26869
G1 X89.831 Y120.276 E12.3068
G1 X89.599 Y119.711 E12.32712
G1 X89.211 Y118.58 E12.36689
G1 X89.144 Y118.34 E12.37517
G1 X88.916 Y117.331 E12.40958
G1 X88.807 Y116.699 E12.43091
G1 X88.68 Y115.613 E12.46728
G1 X88.666 Y115.393 E12.47461
G1 X88.647 Y114.951 E12.48932
G1 X88.643 Y114.574 E12.50186
G1 X88.645 Y114.365 E12.50881
G1 X88.657 Y113.966 E12.52209
G1 X88.685 Y113.52 E12.53695
G1 X88.703 Y113.31 E12.54396
G1 X88.741 Y112.941 E12.5563
