;FLAVOR:Marlin
;TIME:7005
;Filament used: 5.73812m
;Layer height: 0.28
;MINX:59.755
;MINY:60.09
;MINZ:0.28
;MAXX:160.245
;MAXY:159.912
;MAXZ:20.72
;Generated with Cura_SteamEngine 4.13.1
M140 S60
M105
M190 S60
M104 S215
M105
M109 S215
M82 ;absolute extrusion mode
; Ender 3 Custom Start G-code
G92 E0 ; Reset Extruder
G28 ; Home all axes
G1 Z2.0 F3000 ; Move Z Axis up little to prevent scratching of Heat Bed
G1 X0.1 Y20 Z0.3 F5000.0 ; Move to start position
G1 X0.1 Y200.0 Z0.3 F1500.0 E15 ; Draw the first line
G1 X0.4 Y200.0 Z0.3 F5000.0 ; Move to side a little
G1 X0.4 Y20 Z0.3 F1500.0 E30 ; Draw the second line
G92 E0 ; Reset Extruder
G1 Z2.0 F3000 ; Move Z Axis up little to prevent scratching of Heat Bed
G1 X5 Y20 Z0.3 F5000.0 ; Move over to prevent blob squish
G92 E0
G92 E0
G1 F1500 E-6.5
;LAYER_COUNT:74
;LAYER:0
M107
G0 F6000 X74.68 Y74.599 Z0.28
;TYPE:SKIRT
G1 F1500 E0
G1 F1200 X74.854 Y74.428 E0.01136
G1 X75.518 Y73.789 E0.05427
G1 X75.716 Y73.603 E0.06692
G1 X76.406 Y72.971 E0.11049
G1 X76.6 Y72.798 E0.12259
G1 X77.295 Y72.191 E0.16556
G1 X77.497 Y72.019 E0.17791
G1 X78.204 Y71.431 E0.22073
G1 X78.393 Y71.277 E0.23209
G1 X79.1 Y70.715 E0.27414
G1 X79.321 Y70.544 E0.28715
G1 X80.094 Y69.961 E0.33224
G1 X80.283 Y69.822 E0.34316
G1 X80.99 Y69.312 E0.38375
G1 X81.213 Y69.155 E0.39645
G1 X82.008 Y68.611 E0.44131
G1 X82.215 Y68.473 E0.45289
G1 X82.967 Y67.983 E0.49468
G1 X83.19 Y67.841 E0.507
G1 X83.975 Y67.356 E0.54996
G1 X84.205 Y67.218 E0.56245
G1 X85.067 Y66.714 E0.60895
G1 X85.298 Y66.582 E0.62134
G1 X86.067 Y66.157 E0.66225
G1 X87.056 Y65.635 E0.71432
G1 X87.299 Y65.511 E0.72702
G1 X88.164 Y65.083 E0.77196
G1 X88.403 Y64.968 E0.78431
G1 X89.177 Y64.608 E0.82406
G1 X89.421 Y64.498 E0.83652
G1 X90.357 Y64.09 E0.88407
G1 X90.579 Y63.996 E0.8953
G1 X91.34 Y63.684 E0.93359
G1 X91.577 Y63.59 E0.94547
G1 X92.54 Y63.221 E0.99349
G1 X92.804 Y63.124 E1.00658
G1 X93.637 Y62.829 E1.04773
G1 X93.857 Y62.754 E1.05855
G1 X94.674 Y62.484 E1.09862
G1 X94.943 Y62.399 E1.11176
G1 X95.952 Y62.094 E1.16084
G1 X96.208 Y62.02 E1.17325
G1 X97.005 Y61.8 E1.21175
G1 X97.239 Y61.738 E1.22302
G1 X98.13 Y61.513 E1.26581
G1 X98.386 Y61.451 E1.27808
G1 X99.306 Y61.242 E1.32201
G1 X99.553 Y61.189 E1.33377
G1 X100.508 Y60.995 E1.37915
G1 X100.772 Y60.945 E1.39166
G1 X101.638 Y60.791 E1.43261
G1 X101.895 Y60.748 E1.44475
G1 X102.768 Y60.614 E1.48587
G1 X103.005 Y60.581 E1.49702
G1 X104.003 Y60.45 E1.54389
G1 X104.279 Y60.417 E1.55683
G1 X105.197 Y60.32 E1.59981
G1 X105.454 Y60.296 E1.61183
G1 X106.295 Y60.227 E1.65112
G1 X106.547 Y60.209 E1.66289
G1 X107.532 Y60.151 E1.70883
G1 X107.787 Y60.139 E1.72072
G1 X108.684 Y60.107 E1.76252
G1 X108.946 Y60.101 E1.77472
G1 X109.88 Y60.09 E1.81821
G1 X110.14 Y60.09 E1.83032
G1 X111.074 Y60.101 E1.87381
G1 X111.332 Y60.107 E1.88583
G1 X112.181 Y60.137 E1.92539
G1 X112.453 Y60.15 E1.93807
G1 X113.534 Y60.215 E1.98849
G1 X113.791 Y60.233 E2.00049
G1 X114.604 Y60.301 E2.03848
G1 X114.847 Y60.324 E2.04985
G1 X115.724 Y60.417 E2.09091
G1 X115.984 Y60.448 E2.1031
G1 X116.99 Y60.579 E2.15034
G1 X117.252 Y60.616 E2.16266
G1 X118.118 Y60.75 E2.20347
G1 X118.373 Y60.793 E2.21551
G1 X119.29 Y60.957 E2.25889
G1 X119.545 Y61.006 E2.27098
G1 X120.504 Y61.201 E2.31655
G1 X120.755 Y61.255 E2.3285
G1 X121.576 Y61.442 E2.36771
G1 X121.829 Y61.502 E2.37982
G1 X122.826 Y61.754 E2.4277
G1 X123.09 Y61.825 E2.44043
G1 X123.856 Y62.039 E2.47747
G1 X124.073 Y62.102 E2.48799
G1 X125.041 Y62.394 E2.53507
G1 X125.313 Y62.48 E2.54835
G1 X126.158 Y62.759 E2.58979
G1 X126.388 Y62.837 E2.6011
G1 X127.208 Y63.128 E2.64161
G1 X127.466 Y63.224 E2.65443
G1 X128.494 Y63.618 E2.70569
G1 X128.73 Y63.711 E2.7175
G1 X129.413 Y63.991 E2.75188
G1 X129.648 Y64.091 E2.76377
G1 X130.599 Y64.507 E2.8121
G1 X130.829 Y64.611 E2.82386
G1 X131.614 Y64.976 E2.86417
G1 X131.858 Y65.093 E2.87677
G1 X132.704 Y65.512 E2.92073
G1 X132.937 Y65.631 E2.93291
G1 X133.767 Y66.067 E2.97657
G1 X133.999 Y66.192 E2.98884
G1 X134.772 Y66.622 E3.03003
G1 X134.978 Y66.739 E3.04106
G1 X135.78 Y67.208 E3.08432
G1 X136.016 Y67.35 E3.09714
G1 X136.832 Y67.855 E3.14183
G1 X137.034 Y67.983 E3.15296
G1 X137.784 Y68.47 E3.1946
G1 X138.014 Y68.624 E3.20749
G1 X138.835 Y69.187 E3.25385
G1 X139.064 Y69.348 E3.26688
G1 X139.741 Y69.838 E3.3058
G1 X139.923 Y69.973 E3.31635
G1 X140.668 Y70.536 E3.35983
G1 X140.88 Y70.701 E3.37234
G1 X141.645 Y71.309 E3.41784
G1 X141.837 Y71.465 E3.42936
G1 X142.522 Y72.035 E3.47085
G1 X142.73 Y72.212 E3.48357
G1 X143.427 Y72.822 E3.5267
G1 X143.616 Y72.991 E3.53851
G1 X144.288 Y73.607 E3.58096
G1 X144.479 Y73.787 E3.59318
G1 X145.156 Y74.438 E3.63691
G1 X145.346 Y74.625 E3.64932
G1 X145.992 Y75.277 E3.69206
G1 X146.163 Y75.454 E3.70352
G1 X146.829 Y76.157 E3.74861
G1 X147.001 Y76.342 E3.76038
G1 X147.561 Y76.961 E3.79924
G1 X147.75 Y77.175 E3.81254
G1 X148.418 Y77.953 E3.86029
G1 X148.575 Y78.14 E3.87166
G1 X149.12 Y78.804 E3.91166
G1 X149.272 Y78.994 E3.92299
G1 X149.847 Y79.727 E3.96637
G1 X150.018 Y79.951 E3.97949
G1 X150.596 Y80.728 E4.02458
G1 X150.754 Y80.946 E4.03712
G1 X151.245 Y81.641 E4.07674
G1 X151.383 Y81.84 E4.08802
G1 X151.937 Y82.662 E4.13418
G1 X152.545 Y83.606 E4.18646
G1 X152.687 Y83.832 E4.19889
G1 X153.154 Y84.6 E4.24074
G1 X153.289 Y84.828 E4.25308
G1 X153.811 Y85.735 E4.30181
G1 X153.937 Y85.961 E4.31386
G1 X154.346 Y86.712 E4.35368
G1 X154.468 Y86.941 E4.36576
G1 X154.878 Y87.738 E4.40749
G1 X154.996 Y87.974 E4.41978
G1 X155.401 Y88.81 E4.46304
G1 X155.504 Y89.03 E4.47435
G1 X155.886 Y89.865 E4.5171
G1 X155.999 Y90.12 E4.53009
G1 X156.389 Y91.033 E4.57632
G1 X156.484 Y91.262 E4.58786
G1 X156.809 Y92.073 E4.62855
G1 X156.9 Y92.309 E4.64033
G1 X157.211 Y93.14 E4.68164
G1 X157.299 Y93.383 E4.69368
G1 X157.628 Y94.329 E4.74031
G1 X157.717 Y94.597 E4.75346
G1 X157.989 Y95.449 E4.79511
G1 X158.061 Y95.682 E4.80646
G1 X158.32 Y96.56 E4.84909
G1 X158.389 Y96.805 E4.86094
G1 X158.632 Y97.705 E4.90435
G1 X158.7 Y97.969 E4.91704
G1 X158.918 Y98.864 E4.95994
G1 X158.97 Y99.087 E4.9706
G1 X159.163 Y99.958 E5.01214
G1 X159.22 Y100.234 E5.02526
G1 X159.409 Y101.204 E5.07128
G1 X159.456 Y101.461 E5.08345
G1 X159.603 Y102.324 E5.12421
G1 X159.644 Y102.586 E5.13656
G1 X159.781 Y103.527 E5.18084
G1 X159.814 Y103.772 E5.19235
G1 X159.924 Y104.668 E5.23438
G1 X159.953 Y104.926 E5.24647
G1 X160.048 Y105.887 E5.29144
G1 X160.071 Y106.152 E5.30382
G1 X160.136 Y107.025 E5.34459
G1 X160.151 Y107.266 E5.35583
G1 X160.201 Y108.22 E5.40031
G1 X160.212 Y108.491 E5.41294
G1 X160.237 Y109.392 E5.45491
G1 X160.241 Y109.651 E5.46697
G1 X160.245 Y110.598 E5.51107
G1 X160.243 Y110.858 E5.52318
G1 X160.225 Y111.782 E5.56621
G1 X160.217 Y112.04 E5.57823
G1 X160.178 Y112.948 E5.62055
G1 X160.163 Y113.218 E5.63314
G1 X160.103 Y114.106 E5.67459
G1 X160.084 Y114.35 E5.68598
G1 X159.996 Y115.328 E5.73171
G1 X159.97 Y115.581 E5.74355
G1 X159.869 Y116.472 E5.7853
G1 X159.837 Y116.725 E5.79718
G1 X159.712 Y117.638 E5.84009
G1 X159.67 Y117.922 E5.85345
G1 X159.51 Y118.9 E5.8996
G1 X159.47 Y119.129 E5.91042
G1 X159.323 Y119.922 E5.94798
G1 X159.269 Y120.192 E5.9608
G1 X159.058 Y121.19 E6.0083
G1 X159.006 Y121.425 E6.01951
G1 X158.811 Y122.257 E6.0593
G1 X158.743 Y122.53 E6.0724
G1 X158.492 Y123.49 E6.1186
G1 X158.427 Y123.729 E6.13014
G1 X158.187 Y124.569 E6.17081
G1 X158.111 Y124.823 E6.18316
G1 X157.833 Y125.714 E6.22662
G1 X157.755 Y125.953 E6.23833
G1 X157.441 Y126.884 E6.28408
G1 X157.359 Y127.119 E6.29567
G1 X157.07 Y127.916 E6.33514
G1 X156.973 Y128.174 E6.34798
G1 X156.624 Y129.066 E6.39258
G1 X156.528 Y129.304 E6.40453
G1 X156.169 Y130.162 E6.44784
G1 X156.06 Y130.413 E6.46058
G1 X155.694 Y131.23 E6.50227
G1 X155.187 Y132.304 E6.55757
G1 X155.071 Y132.542 E6.5699
G1 X154.663 Y133.352 E6.61213
G1 X154.537 Y133.595 E6.62487
G1 X154.096 Y134.419 E6.66839
G1 X153.98 Y134.631 E6.67964
G1 X153.512 Y135.461 E6.72401
G1 X153.379 Y135.69 E6.73634
G1 X152.929 Y136.445 E6.77727
G1 X152.8 Y136.656 E6.78879
G1 X152.306 Y137.444 E6.83209
G1 X152.156 Y137.677 E6.845
G1 X151.616 Y138.492 E6.89052
G1 X151.477 Y138.696 E6.90202
G1 X151.009 Y139.369 E6.94019
G1 X150.852 Y139.589 E6.95277
G1 X150.247 Y140.415 E7.00045
G1 X150.085 Y140.63 E7.01298
G1 X149.547 Y141.328 E7.05402
G1 X149.394 Y141.523 E7.06556
G1 X148.795 Y142.265 E7.10996
G1 X148.631 Y142.463 E7.12193
G1 X148.09 Y143.102 E7.16092
G1 X147.922 Y143.295 E7.17284
G1 X147.236 Y144.068 E7.22096
G1 X147.062 Y144.26 E7.23302
G1 X146.487 Y144.878 E7.27233
G1 X146.306 Y145.068 E7.28455
G1 X145.616 Y145.775 E7.33055
G1 X145.43 Y145.962 E7.34283
G1 X144.789 Y146.588 E7.38455
G1 X144.612 Y146.756 E7.39592
G1 X143.959 Y147.366 E7.43752
G1 X143.762 Y147.546 E7.44995
G1 X143.027 Y148.2 E7.49576
G1 X142.83 Y148.371 E7.50791
G1 X142.139 Y148.957 E7.5501
G1 X141.932 Y149.129 E7.56263
G1 X141.238 Y149.689 E7.60415
G1 X140.327 Y150.394 E7.65779
G1 X140.134 Y150.54 E7.66906
G1 X139.309 Y151.148 E7.71678
G1 X139.065 Y151.323 E7.73076
G1 X138.398 Y151.787 E7.7686
G1 X138.198 Y151.923 E7.77986
G1 X137.339 Y152.493 E7.82786
G1 X137.122 Y152.633 E7.83989
G1 X136.454 Y153.054 E7.87665
G1 X136.234 Y153.189 E7.88867
G1 X135.366 Y153.708 E7.93577
G1 X135.132 Y153.844 E7.94837
G1 X134.309 Y154.309 E7.99238
G1 X134.076 Y154.437 E8.00476
G1 X133.315 Y154.843 E8.04493
G1 X133.107 Y154.951 E8.05584
G1 X132.262 Y155.379 E8.09995
G1 X132.022 Y155.497 E8.1124
G1 X131.201 Y155.888 E8.15474
G1 X130.961 Y155.999 E8.16705
G1 X130.053 Y156.405 E8.21337
G1 X129.815 Y156.508 E8.22544
G1 X129.011 Y156.845 E8.26604
G1 X128.784 Y156.937 E8.27744
G1 X127.937 Y157.27 E8.31982
G1 X127.685 Y157.366 E8.33238
G1 X126.795 Y157.691 E8.3765
G1 X126.556 Y157.775 E8.38829
G1 X125.713 Y158.061 E8.42974
G1 X125.452 Y158.146 E8.44253
G1 X124.528 Y158.434 E8.48759
G1 X124.289 Y158.505 E8.4992
G1 X123.39 Y158.763 E8.54275
G1 X123.143 Y158.831 E8.55468
G1 X122.322 Y159.046 E8.5942
G1 X122.069 Y159.109 E8.60634
G1 X121.089 Y159.341 E8.65324
G1 X120.834 Y159.398 E8.6654
G1 X120.05 Y159.564 E8.70272
G1 X119.776 Y159.619 E8.71573
G1 X119.242 Y159.718 E8.74102
G1 X118.314 Y159.849 E8.78466
G1 X117.375 Y159.901 E8.82845
G1 X116.44 Y159.912 E8.87199
G1 X104.194 Y159.912 E9.44222
G1 X102.689 Y159.902 E9.5123
G1 X101.752 Y159.856 E9.55598
G1 X100.942 Y159.75 E9.59402
G1 X100.644 Y159.7 E9.60809
G1 X100.187 Y159.614 E9.62974
G1 X99.062 Y159.376 E9.68329
G1 X98.799 Y159.317 E9.69584
G1 X97.969 Y159.12 E9.73556
G1 X97.714 Y159.056 E9.7478
G1 X96.789 Y158.813 E9.79233
G1 X96.552 Y158.748 E9.80378
G1 X95.687 Y158.5 E9.84568
G1 X95.422 Y158.42 E9.85857
G1 X94.537 Y158.142 E9.90176
G1 X94.302 Y158.065 E9.91328
G1 X93.429 Y157.769 E9.9562
G1 X93.187 Y157.684 E9.96815
G1 X92.341 Y157.375 E10.01008
G1 X92.096 Y157.283 E10.02227
G1 X91.138 Y156.907 E10.07019
G1 X90.89 Y156.806 E10.08266
G1 X90.144 Y156.492 E10.12035
G1 X89.909 Y156.39 E10.13228
G1 X89.035 Y155.998 E10.17688
G1 X88.806 Y155.892 E10.18863
G1 X87.981 Y155.499 E10.23118
G1 X87.744 Y155.382 E10.24349
G1 X86.853 Y154.931 E10.28999
G1 X86.626 Y154.813 E10.3019
G1 X85.9 Y154.424 E10.34026
G1 X85.682 Y154.304 E10.35184
G1 X84.847 Y153.832 E10.39651
G1 X84.602 Y153.689 E10.40972
G1 X83.725 Y153.163 E10.45733
G1 X83.512 Y153.032 E10.46898
G1 X82.875 Y152.63 E10.50405
G1 X82.666 Y152.495 E10.51564
G1 X81.787 Y151.912 E10.56475
G1 X81.558 Y151.756 E10.57765
G1 X80.861 Y151.268 E10.61727
G1 X80.663 Y151.126 E10.62862
G1 X79.893 Y150.561 E10.67309
G1 X79.68 Y150.4 E10.68552
G1 X78.931 Y149.822 E10.72958
G1 X78.736 Y149.668 E10.74115
G1 X78.047 Y149.111 E10.7824
G1 X77.841 Y148.941 E10.79484
G1 X77.144 Y148.349 E10.83742
G1 X76.945 Y148.176 E10.8497
G1 X76.217 Y147.527 E10.89511
G1 X76.034 Y147.36 E10.90665
G1 X75.349 Y146.721 E10.95027
G1 X75.161 Y146.541 E10.96239
G1 X74.569 Y145.962 E11.00095
G1 X74.38 Y145.773 E11.01339
G1 X73.67 Y145.044 E11.06078
G1 X73.5 Y144.866 E11.07224
G1 X72.931 Y144.255 E11.11112
G1 X72.749 Y144.054 E11.12374
G1 X72.094 Y143.315 E11.16972
G1 X71.923 Y143.118 E11.18187
G1 X71.319 Y142.403 E11.22545
G1 X71.159 Y142.209 E11.23716
G1 X70.601 Y141.517 E11.27856
G1 X70.445 Y141.319 E11.29029
G1 X69.885 Y140.591 E11.33306
G1 X69.728 Y140.381 E11.34527
G1 X69.16 Y139.605 E11.39005
G1 X68.996 Y139.376 E11.40317
G1 X68.476 Y138.626 E11.44566
G1 X68.347 Y138.435 E11.45639
G1 X67.844 Y137.676 E11.49879
G1 X67.699 Y137.452 E11.51122
G1 X67.195 Y136.65 E11.55532
G1 X67.057 Y136.423 E11.56769
G1 X66.607 Y135.667 E11.60866
G1 X66.475 Y135.44 E11.62089
G1 X65.99 Y134.579 E11.6669
G1 X65.873 Y134.365 E11.67826
G1 X65.454 Y133.581 E11.71965
G1 X65.319 Y133.32 E11.73333
G1 X64.923 Y132.529 E11.77453
G1 X64.825 Y132.328 E11.78494
G1 X64.418 Y131.472 E11.82907
G1 X64.301 Y131.219 E11.84205
G1 X63.907 Y130.333 E11.8872
G1 X63.812 Y130.114 E11.89832
G1 X63.463 Y129.281 E11.94037
G1 X63.358 Y129.02 E11.95347
G1 X63.019 Y128.149 E11.99699
G1 X62.936 Y127.927 E12.00803
G1 X62.641 Y127.118 E12.04813
G1 X62.55 Y126.861 E12.06082
G1 X62.228 Y125.905 E12.1078
G1 X62.151 Y125.666 E12.11949
G1 X61.889 Y124.825 E12.1605
G1 X61.812 Y124.567 E12.17304
G1 X61.565 Y123.7 E12.21502
G1 X61.498 Y123.454 E12.22689
G1 X61.25 Y122.5 E12.27279
G1 X61.189 Y122.252 E12.28468
G1 X60.996 Y121.432 E12.32391
G1 X60.939 Y121.176 E12.33612
G1 X60.723 Y120.149 E12.38499
G1 X60.671 Y119.887 E12.39743
G1 X60.529 Y119.12 E12.43375
G1 X60.486 Y118.875 E12.44533
G1 X60.326 Y117.886 E12.49198
G1 X60.287 Y117.626 E12.50422
G1 X60.161 Y116.709 E12.54732
G1 X60.13 Y116.463 E12.55887
G1 X60.028 Y115.572 E12.60063
G1 X60 Y115.295 E12.61359
G1 X59.913 Y114.316 E12.65936
G1 X59.894 Y114.066 E12.67103
G1 X59.836 Y113.187 E12.71205
G1 X59.822 Y112.931 E12.72399
G1 X59.783 Y112.015 E12.76668
G1 X59.775 Y111.761 E12.77851
G1 X59.757 Y110.837 E12.82155
G1 X59.755 Y110.576 E12.8337
G1 X59.759 Y109.631 E12.87771
G1 X59.763 Y109.369 E12.88991
G1 X59.788 Y108.479 E12.93136
G1 X59.799 Y108.209 E12.94395
G1 X59.851 Y107.223 E12.98992
G1 X59.867 Y106.972 E13.00164
G1 X59.931 Y106.126 E13.04114
G1 X59.954 Y105.869 E13.05316
G1 X60.05 Y104.902 E13.0984
G1 X60.078 Y104.65 E13.11021
G1 X60.184 Y103.786 E13.15074
G1 X60.219 Y103.526 E13.16296
G1 X60.363 Y102.546 E13.20908
G1 X60.405 Y102.279 E13.22167
G1 X60.563 Y101.361 E13.26504
G1 X60.608 Y101.116 E13.27664
G1 X60.774 Y100.267 E13.31692
G1 X60.826 Y100.019 E13.32872
G1 X61.035 Y99.067 E13.37411
G1 X61.092 Y98.821 E13.38587
G1 X61.296 Y97.984 E13.42598
G1 X61.365 Y97.717 E13.43882
G1 X61.619 Y96.778 E13.48412
G1 X61.692 Y96.52 E13.4966
G1 X61.96 Y95.617 E13.54046
G1 X62.031 Y95.387 E13.55167
G1 X62.295 Y94.564 E13.59192
G1 X62.373 Y94.328 E13.60349
G1 X62.694 Y93.4 E13.64921
G1 X62.792 Y93.128 E13.66268
G1 X63.115 Y92.268 E13.70545
G1 X63.203 Y92.042 E13.71675
G1 X63.545 Y91.189 E13.75954
G1 X63.646 Y90.947 E13.77175
G1 X63.996 Y90.131 E13.81309
G1 X64.103 Y89.888 E13.82546
G1 X64.505 Y89.01 E13.87042
G1 X64.608 Y88.792 E13.88165
G1 X65 Y87.983 E13.92351
G1 X65.124 Y87.735 E13.93642
G1 X65.557 Y86.896 E13.98038
G1 X65.672 Y86.68 E13.99178
G1 X66.087 Y85.918 E14.03218
G1 X66.215 Y85.689 E14.0444
G1 X66.712 Y84.826 E14.09077
G1 X66.849 Y84.595 E14.10327
G1 X67.327 Y83.81 E14.14607
G1 X67.462 Y83.594 E14.15793
G1 X67.93 Y82.864 E14.19831
G1 X68.072 Y82.647 E14.21038
G1 X68.616 Y81.841 E14.25566
G1 X68.757 Y81.638 E14.26717
G1 X69.298 Y80.874 E14.31076
G1 X69.457 Y80.655 E14.32337
G1 X69.985 Y79.947 E14.36449
G1 X70.144 Y79.739 E14.37668
G1 X70.752 Y78.963 E14.42259
G1 X70.91 Y78.766 E14.43435
G1 X71.443 Y78.117 E14.47345
G1 X71.617 Y77.91 E14.48604
G1 X72.267 Y77.157 E14.53236
G1 X72.43 Y76.973 E14.54381
G1 X73.017 Y76.323 E14.58459
G1 X73.192 Y76.133 E14.59662
G1 X73.83 Y75.459 E14.63983
G1 X74.017 Y75.266 E14.65235
G1 X74.68 Y74.599 E14.69614
G0 F6000 X74.964 Y74.881
G1 F1200 X75.132 Y74.716 E14.7071
G1 X75.796 Y74.077 E14.75001
G1 X75.986 Y73.898 E14.76217
G1 X76.676 Y73.266 E14.80574
G1 X76.863 Y73.099 E14.81741
G1 X77.558 Y72.492 E14.86038
G1 X77.753 Y72.326 E14.8723
G1 X78.46 Y71.738 E14.91512
G1 X78.642 Y71.59 E14.92605
G1 X79.349 Y71.028 E14.9681
G1 X79.562 Y70.863 E14.98065
G1 X80.335 Y70.28 E15.02573
